X:54
T:The Teetering Magpie
C:Tradformer + Sturm
M:6/8
K:Gmaj
dBG AB/2A/2G|B/2A/2GD EGA|G2B- BdB|edB A2B|dBG AB/2A/2G|B/2A/2GD EGA|G2A BdB|1AGF G2e:|2AGF G2d| 
|:~e3 edB|def g2b|age ged|Bde ga/2g/2f|~e3 edB|def g2b|age dBA|1AGF G2d:|2AGF G2e|

